X: 113103
T: CALEDONIAN HUNT
Q: "Strathspey."
R:  Strathspey.
%R: strathspey
B: James Kerr "Merry Melodies" v.1 p.13 s.1 #3
Z: 2017 John Chambers <jc:trillian.mit.edu>
M: C
L: 1/16
K: D
A2 |\
vF3vAud3uA (Bd3) A3uF | (GB3) A3F BE3 E3G |\
F3Ad3A (Bd3) A3F | (GB3) A3G FD3 D2 :|\
uf2 |\
(defg) ua3uf (bg3)(af3) | (defg) a3f (bg3) (af3) |
(defg) a3f (bg3) (af3) | Aa3 a3g fd3 d3f |\
(defg) (af3) (bg3) (af3) | (defg) a3f ge3 e3g |\
f3de2f2 d3B AF3 | A3Bd3e fd3 d2 |]

%%sep 1 1 500
%%sep 1 1 500

